packages/icons/src/SVG/line-chart-solid.svg

<svg width="12" height="12" viewBox="0 0 12 12" >
<path d="M10.5 4C11.3284 4 12 3.32843 12 2.5C12 1.67157 11.3284 1 10.5 1C9.67158 1 9 1.67157 9 2.5C9 2.93616 9.18616 3.32883 9.48334 3.60292L7.59754 8.00312C7.56529 8.00105 7.53277 8 7.5 8C7.34368 8 7.19293 8.02391 7.05123 8.06828L5.74864 6.33149C5.90743 6.09351 6 5.80756 6 5.5C6 4.67157 5.32843 4 4.5 4C3.67157 4 3 4.67157 3 5.5C3 5.86305 3.12898 6.19598 3.34362 6.45546L1.79901 9.02981C1.70238 9.01026 1.60239 9 1.5 9C0.671573 9 0 9.67157 0 10.5C0 11.3284 0.671573 12 1.5 12C2.32843 12 3 11.3284 3 10.5C3 10.1369 2.87101 9.80401 2.65637 9.54452L4.20097 6.97019C4.2976 6.98974 4.3976 7 4.5 7C4.65634 7 4.80709 6.97608 4.9488 6.93171L6.25138 8.66848C6.09258 8.90647 6 9.19242 6 9.5C6 10.3284 6.67158 11 7.5 11C8.32843 11 9 10.3284 9 9.5C9 9.06384 8.81385 8.67117 8.51667 8.39709L10.4025 3.99688C10.4347 3.99895 10.4672 4 10.5 4Z" />
</svg>

<!-- Generated by IcoMoon.io -->
<svg version="1.1" xmlns="http://www.w3.org/2000/svg" width="12" height="12" viewBox="0 0 12 12">
<title>line-chart-solid</title>
<path d="M10.5 4c0.828 0 1.5-0.672 1.5-1.5s-0.672-1.5-1.5-1.5c-0.828 0-1.5 0.672-1.5 1.5 0 0.436 0.186 0.829 0.483 1.103l-1.886 4.4c-0.032-0.002-0.065-0.003-0.098-0.003-0.156 0-0.307 0.024-0.449 0.068l-1.303-1.737c0.159-0.238 0.251-0.524 0.251-0.831 0-0.828-0.672-1.5-1.5-1.5s-1.5 0.672-1.5 1.5c0 0.363 0.129 0.696 0.344 0.955l-1.545 2.574c-0.097-0.020-0.197-0.030-0.299-0.030-0.828 0-1.5 0.672-1.5 1.5s0.672 1.5 1.5 1.5 1.5-0.672 1.5-1.5c0-0.363-0.129-0.696-0.344-0.955l1.545-2.574c0.097 0.020 0.197 0.030 0.299 0.030 0.156 0 0.307-0.024 0.449-0.068l1.303 1.737c-0.159 0.238-0.251 0.524-0.251 0.832 0 0.828 0.672 1.5 1.5 1.5s1.5-0.672 1.5-1.5c0-0.436-0.186-0.829-0.483-1.103l1.886-4.4c0.032 0.002 0.065 0.003 0.098 0.003z"></path>
</svg>
